X: 121
T:Missa Missus est Gabriel Angelus / Kyrie
N: Derived from Jos1002a-Missa_Missus_est_Gabriel_Angelus-Kyrie.krn
C: Josquin des Prez
%%abc-version 2.0
%%abcx-abcm2ps-target-version 5.9.1 (29 Sep 2008)
%%abc-creator hum2abc beta
%%abcx-conversion-date 2019/02/12 16:15:43
%%abc-edited-by Jesse Rodin
%%abc-edited-by Will Watson 07/07/2011
%%abcx-initial-encoding-date 2011/07/07/
%%humdrum-veritas 2836524733
%%humdrum-veritas-data 2014666378
%%linebreak <none>
%%barnumbers 0
L: 1/4
M: 2/1
Q: 1/2=120
%%staves [1 2 3 4]
V: 1 clef=treble
V: 2 clef=treble-8
V: 3 clef=treble-8
V: 4 clef=bass
K: F
[V:1] G,8 | 
[V:2] z8 | 
[V:3] z8 | 
[V:4] z8 | 
[V:1] G,4D4 | 
[V:2] z8 | 
[V:3] z8 | 
[V:4] z8 | 
[V:1] D4z2G2- | 
[V:2] G8 | 
[V:3] z8 | 
[V:4] z8 | 
[V:1] G2FEF3E | 
[V:2] G4d4 | 
[V:3] z8 | 
[V:4] z8 | 
[V:1] DCB,4B2- | 
[V:2] d4z2g2- | 
[V:3] G8 | 
[V:4] z8 | 
[V:1] B2AGA2B2- | 
[V:2] g2fef3e | 
[V:3] G4d4 | 
[V:4] z8 | 
[V:1] BAGFGFE2 | 
[V:2] dcB3GB2- | 
[V:3] d4z2G2- | 
[V:4] G,,8 | 
[V:1] D8- | 
[V:2] B2AGA4 | 
[V:3] G2FEF3G | 
[V:4] G,,4D,4 | 
[V:1] D8 | 
[V:2] F4G2B2- | 
[V:3] A2B4AG | 
[V:4] D,4z2G,2- | 
[V:1] z8 | 
[V:2] B2AGA4- | 
[V:3] d8- | 
[V:4] G,2F,E,F,3E, | 
[V:1] z8 | 
[V:2] A2B4G2- | 
[V:3] d8 | 
[V:4] D,C,B,,4B,2- | 
[V:1] z8 | 
[V:2] GAB2A2B2 | 
[V:3] z4d4- | 
[V:4] B,A,G,2F,2G,2- | 
[V:1] z8 | 
[V:2] G2F2G3A | 
[V:3] d4c4 | 
[V:4] G,F,D,2E,4 | 
[V:1] z4A4- | 
[V:2] B2A2d4 | 
[V:3] d4f3e | 
[V:4] D,8 | 
[V:1] A4G4 | 
[V:2] z4d4 | 
[V:3] d2c2B4 | 
[V:4] z8 | 
[V:1] A6GF | 
[V:2] c4d2f2- | 
[V:3] A4F4 | 
[V:4] z4D,4 | 
[V:1] G4F4 | 
[V:2] fce2d4 | 
[V:3] c3BA2B2 | 
[V:4] C,4D,4 | 
[V:1] A3GABc2- | 
[V:2] c2f4e2 | 
[V:3] A3Bc4 | 
[V:4] F,8- | 
[V:1] c2B3GA2 | 
[V:2] d2cBc4 | 
[V:3] z4z2F2- | 
[V:4] F,8 | 
[V:1] D4z4 | 
[V:2] B4z4 | 
[V:3] F2G4A2- | 
[V:4] z2B,,2C,4 | 
[V:1] z8 | 
[V:2] z8 | 
[V:3] A2B4G2- | 
[V:4] D,4_E,4 | 
[V:1] z4F4 | 
[V:2] z8 | 
[V:3] G2A4D2 | 
[V:4] C,4D,4 | 
[V:1] G4A4 | 
[V:2] B4c2d2- | 
[V:3] D4z4 | 
[V:4] G,,4z4 | 
[V:1] B4G4 | 
[V:2] d2_e4c2- | 
[V:3] z8 | 
[V:4] z8 | 
[V:1] A4D4 | 
[V:2] c2d4G2 | 
[V:3] z2F4G2- | 
[V:4] z4B,,4 | 
[V:1] z4F4 | 
[V:2] c4F2f2 | 
[V:3] G2A4B2- | 
[V:4] C,4D,4 | 
[V:1] G6A2- | 
[V:2] _e8 | 
[V:3] B2G2c4 | 
[V:4] _E,4C,4 | 
[V:1] AGG4^F2 | 
[V:2] d8 | 
[V:3] B2AGA4 | 
[V:4] D,8 | 
[V:1] G8 ||  
[V:2] d8 ||  
[V:3] G8 ||  
[V:4] G,,8 ||  
[V:1] [M:2/1]z4A4- | 
[V:2] [M:2/1]d8 | 
[V:3] [M:2/1]z8 | 
[V:4] [M:2/1]z8 | 
[V:1] A4A4 | 
[V:2] d4c4- | 
[V:3] z8 | 
[V:4] z8 | 
[V:1] G6FE | 
[V:2] c2BAG3A | 
[V:3] z8 | 
[V:4] z8 | 
[V:1] D3EFGA2- | 
[V:2] Bcd4cB | 
[V:3] z8 | 
[V:4] z8 | 
[V:1] A2GFG3A | 
[V:2] c3de4 | 
[V:3] z8 | 
[V:4] z8 | 
[V:1] B4A4 | 
[V:2] d2g4^f2 | 
[V:3] z8 | 
[V:4] z8 | 
[V:1] z2d3cA2 | 
[V:2] g3fd2f2 | 
[V:3] z8 | 
[V:4] z8 | 
[V:1] c2B3Ad2- | 
[V:2] e3dg3f | 
[V:3] z8 | 
[V:4] z8 | 
[V:1] dcA2c2B2- | 
[V:2] d2f2e3d | 
[V:3] z8 | 
[V:4] z8 | 
[V:1] BAd4^c2 | 
[V:2] g2f2e4 | 
[V:3] z8 | 
[V:4] z8 | 
[V:1] d8 | 
[V:2] d8 | 
[V:3] z4A4- | 
[V:4] D,8 | 
[V:1] z8 | 
[V:2] z8 | 
[V:3] A4A4 | 
[V:4] D,4C,3D, | 
[V:1] z8 | 
[V:2] z8 | 
[V:3] G3ABcd2- | 
[V:4] E,F,G,3F,D,2 | 
[V:1] z8 | 
[V:2] z8 | 
[V:3] d2^c2d4 | 
[V:4] E,4D,4 | 
[V:1] z8 | 
[V:2] z8 | 
[V:3] z2d3cA2 | 
[V:4] G,3F,D,2F,2 | 
[V:1] z8 | 
[V:2] z8 | 
[V:3] c2B3Ad2- | 
[V:4] E,3D,G,3F, | 
[V:1] z8 | 
[V:2] z8 | 
[V:3] dcA2c2B2- | 
[V:4] D,2F,2E,2D,2- | 
[V:1] z8 | 
[V:2] z8 | 
[V:3] BAG4^F2 | 
[V:4] D,C,B,,2A,,4 | 
[V:1] z8 | 
[V:2] B8 | 
[V:3] G4z2G2 | 
[V:4] G,,2G,4F,E, | 
[V:1] z4B4- | 
[V:2] F4G4 | 
[V:3] A2d3cBA | 
[V:4] D,4G,,2G,2- | 
[V:1] B4F4 | 
[V:2] GABcd4 | 
[V:3] B2G2A2F2 | 
[V:4] G,2F,E,D,4 | 
[V:1] G4GABc | 
[V:2] _e8 | 
[V:3] c4B4- | 
[V:4] C,4G,4- | 
[V:1] d6cB | 
[V:2] d8- | 
[V:3] B2AGA4 | 
[V:4] G,2F,E,D,4- | 
[V:1] A2F3GA2- | 
[V:2] d8 | 
[V:3] z4F4- | 
[V:4] D,8- | 
[V:1] A2D2G4 | 
[V:2] z2f4e2 | 
[V:3] F4C4 | 
[V:4] D,4z4 | 
[V:1] F8- | 
[V:2] d6cB | 
[V:3] D4DEFG | 
[V:4] B,,8 | 
[V:1] F4D4 | 
[V:2] c2d3cBA | 
[V:3] A4B4- | 
[V:4] F,,4G,,4 | 
[V:1] z2D3EFD | 
[V:2] G2g2f2d2- | 
[V:3] B4A4- | 
[V:4] G,,A,,B,,C,D,4 | 
[V:1] G6FE | 
[V:2] d2cBc4 | 
[V:3] A2GFG4 | 
[V:4] _E,8 | 
[V:1] F8- | 
[V:2] d8- | 
[V:3] A4B4 | 
[V:4] D,8- | 
[V:1] F8 ||  
[V:2] d8 ||  
[V:3] A8 ||  
[V:4] D,8 ||  
[V:1] [M:2/1]z8 | 
[V:2] [M:2/1]z8 | 
[V:3] [M:2/1]z4d4 | 
[V:4] [M:2/1]G,4F,3E, | 
[V:1] z8 | 
[V:2] z4g4 | 
[V:3] c2B2c4 | 
[V:4] F,2G,2E,4 | 
[V:1] d4c2B2 | 
[V:2] f3ef2g2 | 
[V:3] d4z4 | 
[V:4] D,4z4 | 
[V:1] c4d4 | 
[V:2] e4d4 | 
[V:3] z8 | 
[V:4] z4G,4 | 
[V:1] z8 | 
[V:2] z8 | 
[V:3] d4c2B2 | 
[V:4] F,3E,F,2D,2 | 
[V:1] z8 | 
[V:2] z8 | 
[V:3] c3BG2B2 | 
[V:4] C,3D,E,F,G,2- | 
[V:1] z8 | 
[V:2] z4g4 | 
[V:3] A4G4 | 
[V:4] G,2F,2G,3F, | 
[V:1] d4c2B2 | 
[V:2] f3ef2d2 | 
[V:3] z8 | 
[V:4] D,4z4 | 
[V:1] c3BG2B2 | 
[V:2] c3defg2- | 
[V:3] z8 | 
[V:4] z8 | 
[V:1] A4G3F | 
[V:2] g2^f2g4 | 
[V:3] z4d4 | 
[V:4] D,4G,4 | 
[V:1] GAB4A2 | 
[V:2] z2d2g3f | 
[V:3] c2B2c3B | 
[V:4] C,2G,2E,2F,2 | 
[V:1] B2G4^F2 | 
[V:2] d3Bc2d2 | 
[V:3] G2B2A4 | 
[V:4] G,4z2D,2 | 
[V:1] G8 | 
[V:2] B2c3GB2 | 
[V:3] G8 | 
[V:4] _E,6D,2 | 
[V:1] z4A4 | 
[V:2] A2G4^F2 | 
[V:3] z8 | 
[V:4] C,2B,,2A,,4 | 
[V:1] B6A2 | 
[V:2] GABcdefd | 
[V:3] z8 | 
[V:4] G,,4z4 | 
[V:1] G2F2E4 | 
[V:2] e2d4^c2 | 
[V:3] z4A4 | 
[V:4] z8 | 
[V:1] D4z4 | 
[V:2] d4z4 | 
[V:3] B6A2 | 
[V:4] D,4_E,4- | 
[V:1] z8 | 
[V:2] z8 | 
[V:3] G2F2EDG2- | 
[V:4] E,2D,2C,2B,,2 | 
[V:1] A4B4- | 
[V:2] z4d4 | 
[V:3] G2^F2G4 | 
[V:4] A,,4G,,4 | 
[V:1] B2A2G2F2 | 
[V:2] _e6d2 | 
[V:3] z8 | 
[V:4] z8 | 
[V:1] EDG4^F2 | 
[V:2] c2B2A4 | 
[V:3] A2B2c2d2 | 
[V:4] z4z2D,2 | 
[V:1] G8 | 
[V:2] G4B3A/B/ | 
[V:3] B3AG2F2 | 
[V:4] _E,6D,2 | 
[V:1] z4A4 | 
[V:2] A2G4^F2 | 
[V:3] E2D4C2 | 
[V:4] C,2B,,2A,,4 | 
[V:1] B6A2 | 
[V:2] G3AB4 | 
[V:3] D4G4 | 
[V:4] G,,8 | 
[V:1] G2F2E4 | 
[V:2] c8 | 
[V:3] E6F2 | 
[V:4] C,8 | 
[V:1] D8 |]  
[V:2] B8 |]  
[V:3] G8 |]  
[V:4] G,,8 |]  



